src/images/Nutanix/Process3.svg

<svg fill="none" height="209" viewBox="0 0 209 209" width="209" xmlns="http://www.w3.org/2000/svg"><rect fill="#ec8539" height="209" rx="20" width="209"/><path d="m161.062 74.4375c.58-.5782 1.04-1.265 1.353-2.0211.314-.7561.475-1.5666.475-2.3851 0-.8186-.161-1.6291-.475-2.3852-.313-.7561-.773-1.4429-1.353-2.0211l-17.687-17.6875c-.578-.5794-1.265-1.0391-2.021-1.3527s-1.567-.4751-2.385-.4751c-.819 0-1.629.1615-2.385.4751s-1.443.7733-2.022 1.3527l-28.062 28.0625-24.3125-24.3125c-4.875-4.875-12.8125-4.875-17.6875 0l-11.875 11.875c-4.875 4.875-4.875 12.8125 0 17.6875l24.3125 24.313-28.1875 28.187v26.5h26.5l28.25-28.25 24.312 24.313c5.938 5.937 13.938 3.75 17.688 0l11.875-11.875c4.875-4.875 4.875-12.813 0-17.688l-24.313-24.312zm-99.562-2.0625 11.8125-11.875 7.9375 7.9375-7.375 7.4375 8.8125 8.8125 7.4375-7.4375 7.5 7.5-11.875 11.875zm70.188 46.5-7.438 7.438 8.812 8.812 7.438-7.437 7.938 7.937-11.876 11.875-24.312-24.312 11.875-11.875zm-61.6255 28.875h-8.8125v-8.812l60.062-60.063 8.126 8.125.687.6875zm60.0625-77.75 8.813-8.8125 8.812 8.8125-8.812 8.8125z" fill="#fbfbfb"/></svg>

<svg width="209" height="209" viewBox="0 0 209 209" fill="none" xmlns="http://www.w3.org/2000/svg">
<path d="M189 0H20C8.9543 0 0 8.9543 0 20V189C0 200.046 8.9543 209 20 209H189C200.046 209 209 200.046 209 189V20C209 8.9543 200.046 0 189 0Z" fill="#034EA2"/>
<path d="M161.062 74.4374C161.642 73.8592 162.102 73.1724 162.415 72.4163C162.729 71.6602 162.89 70.8497 162.89 70.0312C162.89 69.2126 162.729 68.4021 162.415 67.646C162.102 66.8899 161.642 66.2031 161.062 65.6249L143.375 47.9374C142.797 47.358 142.11 46.8983 141.354 46.5847C140.598 46.2711 139.787 46.1096 138.969 46.1096C138.15 46.1096 137.34 46.2711 136.584 46.5847C135.828 46.8983 135.141 47.358 134.562 47.9374L106.5 75.9999L82.1875 51.6874C77.3125 46.8124 69.375 46.8124 64.5 51.6874L52.625 63.5624C47.75 68.4374 47.75 76.3749 52.625 81.2499L76.9375 105.563L48.75 133.75V160.25H75.25L103.5 132L127.812 156.313C133.75 162.25 141.75 160.063 145.5 156.313L157.375 144.438C162.25 139.563 162.25 131.625 157.375 126.75L133.062 102.438L161.062 74.4374ZM61.5 72.3749L73.3125 60.4999L81.25 68.4374L73.875 75.8749L82.6875 84.6874L90.125 77.2499L97.625 84.7499L85.75 96.6249L61.5 72.3749ZM131.688 118.875L124.25 126.313L133.062 135.125L140.5 127.688L148.438 135.625L136.562 147.5L112.25 123.188L124.125 111.313L131.688 118.875ZM70.0625 147.75H61.25V138.938L121.312 78.8749L129.438 86.9999L130.125 87.6874L70.0625 147.75ZM130.125 69.9999L138.938 61.1874L147.75 69.9999L138.938 78.8124L130.125 69.9999Z" fill="#FBFBFB"/>
</svg>
